src/lib/packages/icons/src/assets/line/copy.svg

<svg xmlns="http://www.w3.org/2000/svg" width="24" height="24" fill="none"><path fill="currentColor" d="M18.375 21.75h-8.75c-2.177 0-3.375-1.198-3.375-3.375v-8.75c0-2.177 1.198-3.375 3.375-3.375h8.75c2.177 0 3.375 1.198 3.375 3.375v8.75c0 2.177-1.198 3.375-3.375 3.375Zm-8.75-14c-1.332 0-1.875.543-1.875 1.875v8.75c0 1.332.543 1.875 1.875 1.875h8.75c1.332 0 1.875-.543 1.875-1.875v-8.75c0-1.332-.543-1.875-1.875-1.875h-8.75ZM3.75 15V5.625c0-1.332.543-1.875 1.875-1.875H15a.75.75 0 0 0 0-1.5H5.625c-2.177 0-3.375 1.198-3.375 3.375V15a.75.75 0 0 0 1.5 0Z"/></svg>

<svg width="24" height="24" viewBox="0 0 24 24" fill="none" xmlns="http://www.w3.org/2000/svg">
<path d="M18.375 21.75H9.625C7.448 21.75 6.25 20.552 6.25 18.375V9.625C6.25 7.448 7.448 6.25 9.625 6.25H18.375C20.552 6.25 21.75 7.448 21.75 9.625V18.375C21.75 20.552 20.552 21.75 18.375 21.75ZM9.625 7.75C8.293 7.75 7.75 8.293 7.75 9.625V18.375C7.75 19.707 8.293 20.25 9.625 20.25H18.375C19.707 20.25 20.25 19.707 20.25 18.375V9.625C20.25 8.293 19.707 7.75 18.375 7.75H9.625ZM3.75 15V5.625C3.75 4.293 4.293 3.75 5.625 3.75H15C15.414 3.75 15.75 3.414 15.75 3C15.75 2.586 15.414 2.25 15 2.25H5.625C3.448 2.25 2.25 3.448 2.25 5.625V15C2.25 15.414 2.586 15.75 3 15.75C3.414 15.75 3.75 15.414 3.75 15Z" fill="currentColor"/>
</svg>
